rospo-icon-theme-classic-common/32x32/places/folder-grey-network.svg

<svg height="32" width="32" xmlns="http://www.w3.org/2000/svg"><rect height="16" opacity=".2" rx="1.25" width="25" x="3" y="12"/><path d="m3 21.75c0 .692.5575 1.25 1.25 1.25h22.5c.692 0 1.25-.558 1.25-1.25v-13.5c0-.6925-.558-1.25-1.25-1.25h-12.75v-.75c0-.6925-.557-1.25-1.25-1.25h-8.5c-.6925 0-1.25.5575-1.25 1.25" fill="#727272"/><rect height="16" opacity=".2" rx="1.25" width="25" x="3" y="10"/><rect fill="#e4e4e4" height="10" rx="1.25" width="21" x="5" y="9"/><rect fill="#8e8e8e" height="16" rx="1.25" width="25" x="3" y="11"/><path d="m4.25 5c-.6925 0-1.25.5575-1.25 1.25v1c0-.6925.5575-1.25 1.25-1.25h8.5c.693 0 1.25.5575 1.25 1.25v.75h12.75c.692 0 1.25.5575 1.25 1.25v-1c0-.6925-.558-1.25-1.25-1.25h-12.75v-.75c0-.6925-.557-1.25-1.25-1.25z" fill="#fff" opacity=".1"/><path d="m16 14c-2.761 0-5 2.239-5 5s2.239 5 5 5 5-2.239 5-5-2.239-5-5-5zm-.357 1.384c.048-.005.108.003.156 0 .006.023-.035.104-.089.223-.347.758-.367 1.646-.045 2.121.058.086.112.168.112.178 0 .011-.063.023-.134.023-.167 0-.325-.102-.647-.358-.144-.113-.33-.208-.402-.223-.114-.022-.144-.012-.29.134-.137.137-.179.21-.179.335 0 .473.562.85 1.607 1.071 1.419.301 1.769.571 1.808 1.317.049.936-.449 1.642-1.54 2.188-.13.065-.213.09-.268.111-.024-.002-.043.003-.067 0-.009-.028-.022-.096-.022-.223 0-.497-.196-1.008-.491-1.294-.079-.077-.301-.24-.491-.357-.19-.118-.382-.255-.424-.313-.071-.097-.077-.156-.023-.335.099-.326.217-.508.447-.714.12-.108.241-.199.268-.201.026-.002-.154-.056-.424-.112-.271-.055-.666-.171-.871-.245-.374-.135-.879-.42-1.071-.625-.008-.009-.016-.015-.023-.022.276-1.099 1.05-2 2.076-2.433.215-.091.436-.154.67-.201.116-.024.237-.033.357-.045zm3.348 1.674c.084.052.401.737.491 1.071.117.432.108 1.179 0 1.607-.041.164-.094.316-.111.335-.018.019-.082-.09-.157-.223s-.314-.415-.513-.625c-.575-.606-.665-.922-.424-1.406.121-.244.649-.799.714-.759z" fill="#323232"/></svg>

<svg xmlns="http://www.w3.org/2000/svg" width="32" height="32" version="1">
 <rect style="opacity:0.2" width="25" height="16" x="3" y="12" rx="1.25" ry="1.25"/>
 <path style="fill:#727272" d="M 3,21.75 C 3,22.442 3.5575,23 4.25,23 H 26.75 C 27.442,23 28,22.442 28,21.75 V 8.25 C 28,7.5575 27.442,7 26.75,7 H 14 V 6.25 C 14,5.5575 13.443,5 12.75,5 H 4.25 C 3.5575,5 3,5.5575 3,6.25"/>
 <rect style="opacity:0.2" width="25" height="16" x="3" y="10" rx="1.25" ry="1.25"/>
 <rect style="fill:#dcdcdc" width="21" height="10" x="5" y="9" rx="1.25" ry="1.25"/>
 <rect style="fill:#8e8e8e" width="25" height="16" x="3" y="11" rx="1.25" ry="1.25"/>
 <path style="opacity:0.1;fill:#ffffff" d="M 4.25 5 C 3.5575 5 3 5.5575 3 6.25 L 3 7.25 C 3 6.5575 3.5575 6 4.25 6 L 12.75 6 C 13.443 6 14 6.5575 14 7.25 L 14 8 L 26.75 8 C 27.442 8 28 8.5575 28 9.25 L 28 8.25 C 28 7.5575 27.442 7 26.75 7 L 14 7 L 14 6.25 C 14 5.5575 13.443 5 12.75 5 L 4.25 5 z"/>
 <path style="fill:#323232" d="M 16,14 C 13.239,14 11,16.239 11,19 11,21.761 13.239,24 16,24 18.761,24 21,21.761 21,19 21,16.239 18.761,14 16,14 Z M 15.643,15.384 C 15.691,15.379 15.751,15.387 15.799,15.384 15.805,15.407 15.764,15.488 15.71,15.607 15.363,16.365 15.343,17.253 15.665,17.728 15.723,17.814 15.777,17.896 15.777,17.906 15.777,17.917 15.714,17.929 15.643,17.929 15.476,17.929 15.318,17.827 14.996,17.571 14.852,17.458 14.666,17.363 14.594,17.348 14.48,17.326 14.45,17.336 14.304,17.482 14.167,17.619 14.125,17.692 14.125,17.817 14.125,18.29 14.687,18.667 15.732,18.888 17.151,19.189 17.501,19.459 17.54,20.205 17.589,21.141 17.091,21.847 16,22.393 15.87,22.458 15.787,22.483 15.732,22.504 15.708,22.502 15.689,22.507 15.665,22.504 15.656,22.476 15.643,22.408 15.643,22.281 15.643,21.784 15.447,21.273 15.152,20.987 15.073,20.91 14.851,20.747 14.661,20.63 14.471,20.512 14.279,20.375 14.237,20.317 14.166,20.22 14.16,20.161 14.214,19.982 14.313,19.656 14.431,19.474 14.661,19.268 14.781,19.16 14.902,19.069 14.929,19.067 14.955,19.065 14.775,19.011 14.505,18.955 14.234,18.9 13.839,18.784 13.634,18.71 13.26,18.575 12.755,18.29 12.563,18.085 12.555,18.076 12.547,18.07 12.54,18.063 12.816,16.964 13.59,16.063 14.616,15.63 14.831,15.539 15.052,15.476 15.286,15.429 15.402,15.405 15.523,15.396 15.643,15.384 Z M 18.991,17.058 C 19.075,17.11 19.392,17.795 19.482,18.129 19.599,18.561 19.59,19.308 19.482,19.736 19.441,19.9 19.388,20.052 19.371,20.071 19.353,20.09 19.289,19.981 19.214,19.848 19.139,19.715 18.9,19.433 18.701,19.223 18.126,18.617 18.036,18.301 18.277,17.817 18.398,17.573 18.926,17.018 18.991,17.058 Z"/>
</svg>
